X:1
T:Faith in Jesus
T:Faith in Jesus
T:William Howard Doane
T:Frances Jane (Fanny) Crosby, 1877
T:Public Domain Courtesy of the Cyber Hymnal™
C:William Howard Doane
Z:Public Domain
Z:Courtesy of the Cyber Hymnal™
%%score ( 1 2 ) 3
L:1/8
Q:1/4=110
M:4/4
K:D
V:1 treble 
V:2 treble 
V:3 bass 
V:1
 [DF]2 [FA]2 [FA]2 [^E^G][FA] | [GB]2 [FA]2 [DF]4 | [EG]2 [FA][GB] [FA]2 [EG]2 | [DF]8 | %4
w: 1.~Gra- cious Lord, Thou canst|make me clean;|Hide not Thy face from|me;|
w: 2.~Gra- cious Lord, Thou canst|make me clean;|Wear- y and sad am|I;|
w: 3.~Gra- cious Lord, Thou canst|make me clean;|Lord, I am plead- ing|still;|
 [DF]2 [FA]2 [Fd]2 [Gd][Ad] | [Gd]3 [GB] [FA]4 | [DA]2 [CG][DF] [DF]3 [CE] | D8!fine! | %8
w: Sick and faint, as the|le- per came,|Je- sus, I come to|Thee.|
w: Bend- ing low at Thy|sac- red feet,|Hear my re- pent- ant|cry;|
w: Now I hear from Thy|lips di- vine,|“Child, thou hast faith– I|will”;|
 [CE]2 [^B,^D][CE] [CA]2 [DA]2 | [EA]3 [CG] [DF]4 | [Fd]2 [Gc][Ad] [Gd]2 [GB]2 | [FA]8 | %12
w: Thou canst re- move the|plague of sin,|Wash- ing my in- most|soul;|
w: Faith in Thy Word has|led me here,|Faith can- not plead in|vain;|
w: Joy to my soul, great|joy has come,|Mourn- ing and tears are|o’er;|
 [EA]2 [E^G][EA] [EB]2 [GB]2 | A3 [GA] [Fd]4 | [Ec]2 [EB][EA] [E^G]2 [DB]2 | (A6 G2)!D.C.! |] %16
w: Je- sus, I come with|break- ing heart,|Help me and make me|whole. *|
w: Lord, I be- lieve; O|cleanse me now,|Wash me from ev- ery|stain. *|
w: Sweet are Thy words of|love to me,|“Go thou, and sin no|more.” *|
V:2
 x8 | x8 | x8 | x8 | x8 | x8 | x8 | D8 | x8 | x8 | x8 | x8 | x8 | A3 x5 | x8 | C8 |] %16
V:3
 [D,A,]2 [D,D]2 [D,D]2 [D,D][D,D] | [D,D]2 [D,D]2 [D,A,]4 | %2
w: Gra- cious Lord, Thou canst|make me clean;|
 [A,,A,]2 [A,,A,][A,,A,] [A,,A,]2 [C,A,]2 | [D,A,]8 | [D,A,]2 [D,D]2 [D,A,]2 [E,A,][F,D] | %5
w: Speak, and my soul shall|live;|O my faith will not|
 [G,B,]3 [G,D] [D,D]4 | [F,D]2 [E,A,][D,A,] [A,,A,]3 [A,,G,] | [D,F,]8 | %8
w: let Thee go|Till Thou my sin for-|give.|
 [A,,A,]2 [A,,A,][A,,A,] [A,,A,]2 [B,,A,]2 | [C,A,]3 [A,,A,] [D,A,]4 | %10
w: ||
 [D,A,]2 [E,A,][F,D] [G,B,]2 [G,D]2 | [D,D]8 | [E,C]2 [E,B,][E,C] [E,D]2 [^E,D]2 | %13
w: |||
 [F,D]3 [E,A,] [D,A,]4 | [E,A,]2 [E,D][E,C] [E,B,]2 [E,^G,]2 | [A,,A,]8 |] %16
w: |||

